X:325
T: Ningxia youle hongtaiyang
N: C1824
O: China, Ningxia
S: I, 158, 2)]
N: Han Hui
R: Shange, Danglanglang diao]
M: 2/4
L: 1/16
K: F
c3fd2c2 | d2c2B2G2 | d2d4B2 | c8
f2f4c2 | d2c2B2G2 | F2F4C2 | F8
G4c2c2 | d2c2B4 | G3BG2B2 | E8
B2B4G2 | B2G2F2D2 | C2C4B,2 | C8

